icons/sun-solid.svg

<svg width="512" height="512" viewBox="0 0 512 512" fill="none" xmlns="http://www.w3.org/2000/svg">
<g clip-path="url(#clip0_1_2)">
<path d="M361.5 1.19998C366.5 3.29998 370.1 7.79998 371.1 13.1L391 121L498.9 140.8C504.2 141.8 508.7 145.4 510.8 150.4C512.9 155.4 512.3 161.1 509.2 165.6L446.9 256L509.2 346.3C512.3 350.8 512.9 356.5 510.8 361.5C508.7 366.5 504.2 370.1 498.9 371.1L391 391L371.1 498.9C370.1 504.2 366.5 508.7 361.5 510.8C356.5 512.9 350.8 512.3 346.3 509.2L256 446.9L165.7 509.2C161.2 512.3 155.5 512.9 150.5 510.8C145.5 508.7 141.9 504.2 140.9 498.9L121 391L13.1 371.1C7.79998 370.1 3.29998 366.5 1.19998 361.5C-0.900024 356.5 -0.300024 350.8 2.79998 346.3L65.1 256L2.79998 165.7C-0.300024 161.2 -0.900024 155.5 1.19998 150.5C3.29998 145.5 7.79998 141.9 13.1 140.9L121 121L140.9 13.1C141.9 7.79998 145.5 3.29998 150.5 1.19998C155.5 -0.900024 161.2 -0.300024 165.7 2.79998L256 65.1L346.3 2.79998C350.8 -0.300024 356.5 -0.900024 361.5 1.19998ZM160 256C160 230.539 170.114 206.121 188.118 188.118C206.121 170.114 230.539 160 256 160C281.461 160 305.879 170.114 323.882 188.118C341.886 206.121 352 230.539 352 256C352 281.461 341.886 305.879 323.882 323.882C305.879 341.886 281.461 352 256 352C230.539 352 206.121 341.886 188.118 323.882C170.114 305.879 160 281.461 160 256ZM384 256C384 222.052 370.514 189.495 346.51 165.49C322.505 141.486 289.948 128 256 128C222.052 128 189.495 141.486 165.49 165.49C141.486 189.495 128 222.052 128 256C128 289.948 141.486 322.505 165.49 346.51C189.495 370.514 222.052 384 256 384C289.948 384 322.505 370.514 346.51 346.51C370.514 322.505 384 289.948 384 256Z" fill="#FFD43B"/>
</g>
<defs>
<clipPath id="clip0_1_2">
<rect width="512" height="512" fill="white"/>
</clipPath>
</defs>
</svg>

<svg xmlns="http://www.w3.org/2000/svg" viewBox="0 0 512 512"><!--! Font Awesome Pro 6.3.0 by @fontawesome - https://fontawesome.com License - https://fontawesome.com/license (Commercial License) Copyright 2023 Fonticons, Inc. --><path d="M361.5 1.2c5 2.1 8.6 6.6 9.6 11.9L391 121l107.9 19.8c5.3 1 9.8 4.6 11.9 9.6s1.5 10.7-1.6 15.2L446.9 256l62.3 90.3c3.1 4.5 3.7 10.2 1.6 15.2s-6.6 8.6-11.9 9.6L391 391 371.1 498.9c-1 5.3-4.6 9.8-9.6 11.9s-10.7 1.5-15.2-1.6L256 446.9l-90.3 62.3c-4.5 3.1-10.2 3.7-15.2 1.6s-8.6-6.6-9.6-11.9L121 391 13.1 371.1c-5.3-1-9.8-4.6-11.9-9.6s-1.5-10.7 1.6-15.2L65.1 256 2.8 165.7c-3.1-4.5-3.7-10.2-1.6-15.2s6.6-8.6 11.9-9.6L121 121 140.9 13.1c1-5.3 4.6-9.8 9.6-11.9s10.7-1.5 15.2 1.6L256 65.1 346.3 2.8c4.5-3.1 10.2-3.7 15.2-1.6zM160 256a96 96 0 1 1 192 0 96 96 0 1 1 -192 0zm224 0a128 128 0 1 0 -256 0 128 128 0 1 0 256 0z"/></svg>
